brandFactory_export/2.Regular/Ajustes cloud_2Regular.svg

<?xml version="1.0" encoding="UTF-8"?>
<svg width="24px" height="24px" viewBox="0 0 24 24" version="1.1" xmlns="http://www.w3.org/2000/svg" xmlns:xlink="http://www.w3.org/1999/xlink">
    <title>2.Regular/Ajustes cloud_2Regular</title>
    <g id="Symbols" stroke="none" stroke-width="1" fill="none" fill-rule="evenodd">
        <g id="2.Regular/Ajustes-cloud_2Regular" fill="#5CB615" fill-rule="nonzero">
            <path d="M17.2907563,19.2268908 C18.4369748,19.2268908 22.1579832,18.887395 22.1579832,14.5176471 C22.1579832,10.410084 18.8773109,9.87563025 17.4655462,9.83529412 C17.1462185,9.82521008 16.8705882,9.61008403 16.7865546,9.30756303 C15.7848739,5.62689076 11.5495798,5.44201681 10.712605,5.44201681 C9.2302521,5.44201681 4.40336134,5.86554622 4.40336134,11.307563 L4.41008403,11.4218487 C4.41680672,11.7445378 4.20168067,12.0336134 3.88235294,12.1210084 C2.2789916,12.5714286 1.46554622,13.7445378 1.46554622,15.610084 C1.46554622,18.9310924 4.0907563,19.2907563 5.22016807,19.2907563 L17.2907563,19.2268908 L17.2907563,19.2268908 Z M18.0268908,8.44033613 C20.8134454,8.69579832 23.6033613,10.3966387 23.6033613,14.5176471 C23.6033613,19.0453782 20.205042,20.6521008 17.2941176,20.6521008 L5.22352941,20.7193277 C2.70588235,20.7193277 0.0168067227,19.3781513 0.0168067227,15.6134454 C0.0168067227,12.6554622 1.67394958,11.4319328 2.95798319,10.9277311 C3.18991597,4.35294118 9.43529412,4.01344538 10.7058824,4.01344538 C11.6941176,4.01344538 16.5344538,4.23193277 18.0268908,8.44033613 Z M11.8117647,14.1781513 C12.6756303,14.1781513 13.0789916,13.7815126 13.0789916,12.9310924 C13.0789916,12.0806723 12.6789916,11.6840336 11.8117647,11.6840336 C10.9478992,11.6840336 10.5445378,12.0806723 10.5445378,12.9310924 C10.5445378,13.7815126 10.9478992,14.1781513 11.8117647,14.1781513 Z M11.8117647,10.6386555 C13.2705882,10.6386555 14.1411765,11.4957983 14.1411765,12.9310924 C14.1411765,14.3663866 13.2705882,15.2235294 11.8117647,15.2235294 C10.3529412,15.2235294 9.48571429,14.3663866 9.48571429,12.9310924 C9.48571429,11.4957983 10.3529412,10.6386555 11.8117647,10.6386555 Z M15.8218487,13.1563025 L15.8218487,12.702521 L15.0789916,12.702521 C14.7966387,12.702521 14.5546218,12.5008403 14.507563,12.2252101 C14.4571429,11.9193277 14.3697479,11.6470588 14.2554622,11.4151261 C14.1445378,11.1966387 14.1882353,10.9310924 14.3630252,10.7596639 L14.9210084,10.2084034 L14.5714286,9.86554622 L14.0134454,10.4134454 C13.8285714,10.5983193 13.5462185,10.6352941 13.3210084,10.507563 C13.1630252,10.4201681 12.8369748,10.3260504 12.5277311,10.2756303 C12.2453782,10.2285714 12.0403361,9.99327731 12.0403361,9.71092437 L12.0403361,8.97815126 L11.5798319,8.97815126 L11.5798319,9.71092437 C11.5798319,9.98991597 11.3747899,10.2285714 11.092437,10.2756303 C10.7831933,10.3226891 10.4537815,10.4201681 10.2991597,10.507563 C10.0739496,10.6352941 9.78823529,10.5983193 9.60672269,10.4134454 L9.0487395,9.86554622 L8.69915966,10.2084034 L9.25714286,10.7596639 C9.43193277,10.9344538 9.47563025,11.1966387 9.36470588,11.4151261 C9.24705882,11.6504202 9.16302521,11.9193277 9.11596639,12.2218487 C9.06890756,12.497479 8.82689076,12.702521 8.54453782,12.702521 L7.80168067,12.702521 L7.80168067,13.1563025 L8.54453782,13.1563025 C8.82689076,13.1563025 9.07226891,13.3579832 9.11596639,13.6369748 C9.16638655,13.9428571 9.24705882,14.2016807 9.36806723,14.4470588 C9.47563025,14.6655462 9.43193277,14.9277311 9.25714286,15.0991597 L8.69915966,15.6504202 L9.0487395,15.9932773 L9.60672269,15.4420168 C9.78487395,15.2705882 10.0504202,15.2268908 10.2756303,15.3344538 C10.5109244,15.4487395 10.7831933,15.5327731 11.092437,15.5831933 C11.3747899,15.6268908 11.5798319,15.8655462 11.5798319,16.1478992 L11.5798319,16.8806723 L12.0403361,16.8806723 L12.0403361,16.1478992 C12.0403361,15.8689076 12.2453782,15.6302521 12.5277311,15.5831933 C12.8336134,15.5361345 13.1092437,15.4521008 13.3478992,15.3344538 C13.5697479,15.2268908 13.8386555,15.2672269 14.0168067,15.4420168 L14.5747899,15.9932773 L14.9243697,15.6504202 L14.3663866,15.0991597 C14.1915966,14.9277311 14.1478992,14.6655462 14.2554622,14.4470588 C14.3764706,14.1983193 14.4571429,13.9394958 14.507563,13.6369748 C14.5546218,13.3613445 14.7966387,13.1563025 15.0789916,13.1563025 L15.8218487,13.1563025 L15.8218487,13.1563025 Z M15.9428571,11.5630252 C16.5142857,11.5630252 16.9781513,12.0201681 16.9781513,12.5848739 L16.9781513,13.2773109 C16.9781513,13.8420168 16.5142857,14.2991597 15.9428571,14.2991597 L15.5462185,14.2991597 C15.5193277,14.389916 15.492437,14.4806723 15.4588235,14.5680672 L15.8252101,14.9277311 C16.2319328,15.3277311 16.2319328,15.9798319 15.8252101,16.3798319 L15.3142857,16.8840336 C14.9210084,17.2705882 14.2319328,17.2705882 13.8386555,16.8840336 L13.4722689,16.5243697 C13.3848739,16.5546218 13.2941176,16.5848739 13.2,16.6084034 L13.2,17.0016807 C13.2,17.5663866 12.7361345,18.0235294 12.1647059,18.0235294 L11.4621849,18.0235294 C10.8907563,18.0235294 10.4268908,17.5663866 10.4268908,17.0016807 L10.4268908,16.6084034 C10.3327731,16.5815126 10.2420168,16.5546218 10.1546218,16.5243697 L9.79159664,16.8840336 C9.39831933,17.2705882 8.7092437,17.2705882 8.31596639,16.8840336 L7.80168067,16.3798319 C7.39495798,15.9798319 7.39495798,15.3277311 7.80168067,14.9277311 L8.16470588,14.5680672 C8.13445378,14.4806723 8.10420168,14.3932773 8.07731092,14.2991597 L7.67731092,14.2991597 C7.10588235,14.2991597 6.64201681,13.8420168 6.64201681,13.2773109 L6.64201681,12.5848739 C6.64201681,12.0201681 7.10588235,11.5630252 7.67731092,11.5630252 L8.07731092,11.5630252 C8.10420168,11.4722689 8.13109244,11.3848739 8.16470588,11.2941176 L7.79831933,10.9344538 C7.60336134,10.7428571 7.49579832,10.4840336 7.49579832,10.2084034 C7.49579832,9.93277311 7.60336134,9.67394958 7.80168067,9.48235294 L8.31596639,8.97815126 C8.7092437,8.59159664 9.39831933,8.59159664 9.79159664,8.97815126 L10.1546218,9.33445378 C10.2487395,9.30420168 10.3394958,9.27731092 10.4302521,9.25378151 L10.4302521,8.8605042 C10.4302521,8.29579832 10.8941176,7.83865546 11.4655462,7.83865546 L12.1680672,7.83865546 C12.7394958,7.83865546 13.2033613,8.29579832 13.2033613,8.8605042 L13.2033613,9.25378151 C13.2907563,9.27731092 13.3848739,9.30420168 13.4789916,9.33445378 L13.8420168,8.97815126 C14.2352941,8.59159664 14.9243697,8.59159664 15.3176471,8.97815126 L15.8285714,9.48235294 C16.0268908,9.67731092 16.1344538,9.93277311 16.1344538,10.2084034 C16.1344538,10.4840336 16.0268908,10.7394958 15.8285714,10.9344538 L15.4655462,11.2907563 C15.4957983,11.3781513 15.5260504,11.4655462 15.5529412,11.5596639 L15.9428571,11.5596639 L15.9428571,11.5630252 Z" id="Ajustes-cloud_2Regular"></path>
        </g>
    </g>
</svg>

<svg width="24" height="24" viewBox="0 0 24 24" xmlns="http://www.w3.org/2000/svg"><path d="M17.29 19.227c1.147 0 4.868-.34 4.868-4.71 0-4.107-3.28-4.641-4.692-4.682a.727.727 0 01-.68-.527c-1.001-3.681-5.236-3.866-6.073-3.866-1.483 0-6.31.424-6.31 5.866l.007.114a.712.712 0 01-.528.699c-1.603.45-2.416 1.624-2.416 3.49 0 3.32 2.625 3.68 3.754 3.68l12.07-.064zm.737-10.787c2.786.256 5.576 1.957 5.576 6.078 0 4.527-3.398 6.134-6.309 6.134l-12.07.067c-2.518 0-5.207-1.34-5.207-5.106 0-2.958 1.657-4.181 2.941-4.685.232-6.575 6.477-6.915 7.748-6.915.988 0 5.828.219 7.32 4.427zm-6.215 5.738c.864 0 1.267-.396 1.267-1.247 0-.85-.4-1.247-1.267-1.247-.864 0-1.267.397-1.267 1.247 0 .85.403 1.247 1.267 1.247zm0-3.54c1.459 0 2.33.858 2.33 2.293s-.871 2.293-2.33 2.293c-1.46 0-2.326-.858-2.326-2.293s.867-2.292 2.326-2.292zm4.01 2.518v-.453h-.743a.578.578 0 01-.571-.478 2.902 2.902 0 00-.253-.81.562.562 0 01.108-.655l.558-.552-.35-.342-.558.547a.576.576 0 01-.692.095c-.158-.088-.484-.182-.793-.232a.574.574 0 01-.488-.565v-.733h-.46v.733a.576.576 0 01-.488.565c-.309.047-.638.144-.793.232a.575.575 0 01-.692-.095l-.558-.547-.35.342.558.552a.563.563 0 01.108.655 2.735 2.735 0 00-.249.807.58.58 0 01-.571.48h-.743v.454h.743c.282 0 .527.202.571.481.05.306.131.565.252.81a.563.563 0 01-.11.652l-.559.551.35.343.558-.551a.594.594 0 01.669-.108c.235.115.507.199.816.25a.571.571 0 01.488.564v.733h.46v-.733c0-.28.205-.518.488-.565.306-.047.581-.13.82-.249a.59.59 0 01.669.108l.558.551.35-.343-.559-.55a.563.563 0 01-.11-.653c.12-.249.201-.508.252-.81a.58.58 0 01.571-.48h.743zm.12-1.593c.572 0 1.036.457 1.036 1.022v.692c0 .565-.464 1.022-1.035 1.022h-.397c-.027.09-.054.182-.087.27l.366.359c.407.4.407 1.052 0 1.452l-.51.504c-.394.387-1.083.387-1.476 0l-.367-.36a3.22 3.22 0 01-.272.084v.394c0 .564-.464 1.022-1.035 1.022h-.703a1.029 1.029 0 01-1.035-1.022v-.394a5.21 5.21 0 01-.272-.084l-.363.36c-.394.387-1.083.387-1.476 0l-.514-.504a1.017 1.017 0 010-1.452l.363-.36a5.052 5.052 0 01-.088-.269h-.4a1.029 1.029 0 01-1.035-1.022v-.692c0-.565.464-1.022 1.035-1.022h.4a4.17 4.17 0 01.088-.269l-.367-.36a1.011 1.011 0 01-.302-.726c0-.275.107-.534.306-.726l.514-.504c.393-.386 1.082-.386 1.476 0l.363.356c.094-.03.184-.057.275-.08V8.86c0-.565.464-1.022 1.036-1.022h.702c.571 0 1.035.457 1.035 1.022v.393c.088.023.182.05.276.08l.363-.356c.393-.386 1.082-.386 1.476 0l.51.504c.199.195.306.45.306.726 0 .276-.107.531-.305.726l-.363.357c.03.087.06.175.087.269h.39v.003z" fill="#5CB615" fill-rule="nonzero"/></svg>
